X:1
T: Miss Grant
C:Donald Dow
R:Strathspey
Q: 128
K:F
M:4/4
L:1/16
|:c2|A3F F3C F4 A3c|d3f c3f A3G G3c|A3F F3C D3E Fd3|cA3 f3c AF3 F2c2|
A3F F3C F4 A3c|d3f c3f A3G G3c|A3F F3C D3E Fd3|cA3 f3c AF3 F2c2|
A3c f3c A3f cf3|d3f c3f A3G G3B|A3c f3c A3f cf3|e3g ce3 f4 f3c|
A3c f3c A3f cf3|d3f c3A G3A Bd3|c3A F3C D3E Fd3|cA3 f3c af3 f2:|
